X:425
T:Green Grow the Rashis (with Vars.). RH.426
R:air
S:Rev.R.Harrison’s MS,c1815,Cumbria
O:England
A:Temple Sowerby,Cumbria
Z:vmp.Simon Wilson. Review PJH, 2008.
M:C
L:1/16
Q:2/4=60
K:D
d4|B6A2 (A2B2) (d2e2)|(def2) e2d2 d6f2|\
e6f2 gfga|b4(e2f2) e6f2|!
g2f2g2a2 (gab2) a3g|f3e defg {fg}a4g2f2|\
e4b4 (a2f2)(e3f)|d4B3d B4:|!
|:d4|B3BB3d B4a4|f2e2f2a2 f4e3d|\
(e3d)(e3f) e4e’4|(b2a2c’2d’2) b4a2bd’|!
(B2A2B2)d2 B4a3g|f3e (defg) {fg}a4g2f2|\
e4b4 (a2f2e3f)|d4B3d B4:|!
|:d4|”Variation”(B2A2B2d2) A2B2d2e2|(fagf) (egfe) d3e fefd|\
e4E3F GFGA|B2A2G2F2E4e3f|!
g2G2 (gfga) gab2 a3g|f3e (defg) (fga2) g3f|\
e4b4a2f2e3f|e4B3d B4:|!
|:d4|B3AB2d2 B4a4|f2e2f2a2 f2a2 (gf)(ed)|\
(e3d)(e2f2) (eabc’) (d’c’ba)|b2a2b2d’2 b4abe’2|!
(B2A2B2d2) B4b3g|f3e (defg) (fga2) g3f|\
e4b4 a2f2e3f|d4B3d B4:|

